public/cat-idle.svg

<svg width="1080" height="1080" viewBox="0 0 1080 1080" fill="none" xmlns="http://www.w3.org/2000/svg">
  <path d="M201 272C180 23.5 239-28 382 124c65.5-29 175-23.5 241 3C795.5-2.5 844 24.5 795.5 284c52.047 138.194 26.274 228.201-64 277.051C808.729 654.44 867.323 745.604 860.043 873.5c106.457-55.5 0-169-1.543-244.5-2.426-118.694 69-184.5 130-149s-7.77 105.736-12 143.5c-7 62.5 27.33 119.387 30.5 170.5 7 113-119.5 197.5-185 169.514-44.383 39.786-119.88 50.946-178 42.986-17.467 5.03-26.211 5.07-38.5-2-14.084 1.62-24.385-6.4-28.904-18l-40.096.589c-11.897 14.371-26.192 22.641-44.5 21.411-19.395 2.35-30.084 2.4-48-5-22.104-7.033-29.83-13.537-36.506-29-7.2 9.713-18.67 17.653-37.994 27-9 3-33.5 4.5-49 0-10.311-4.211-19.536-10.098-26.489-17.5-16.038 3.54-23.511 7-46.511 4-24.5 1.5-63-33.5-6-71-47-50-45.5-148 6.276-192-3.051-53.423 4.411-105.835 24.224-160.609C146.183 508.329 136.666 386.372 201 272" fill="#fff"/>
  <path d="M501 384c-57.804-112.98-12.628-185.376 24.5-280 31.089 1.279 51.802 5.252 97.5 21C815.682-20.153 834.867 47.05 798.5 285c14 26 31 88.5 22 143-52.52 9.517-72.291 8.009-121 7-98.486 53.07-165.5 13.5-198.5-51M385 239.5c30-53 34.336-70.313 0-116.5C240.509-7.507 189.927-.715 199.5 273.5c-1.267 9.007-30.397 65.252-28.5 72.5 6.731 25.714 60.163-8.308 74-19 55-42.5 97.048-11.618 140-87.5m112.998 589c3.502-6.999 56.501 8.501 107-4.5l-13.499 39.501c-57.499 2.5-106.067-9.885-93.501-35.001M347 818.5c-1.5-17.5-51.5-2.5-87-11.5l10.5 35.5c51.5 6 77.581-11.387 76.5-24M681.602 679c-10.791-20.136 35.001-29 75.5-87l29.5 44 18.5 27.5 25 50 17.5 39 13.5 65.5c-73 26.5-128.019 14.5-122.5-12 4.214-20.234 53-11 109-53.5l-17.5-39c-24.5 25.5-85.644 42.569-96 11.5-5-15 46-21.5 71-61.5l-18.5-27.5c-27 52-96.426 59-105 43M857.5 906l6-36 32.5-23.5c12.842 36.056 19.635 58.648 47.5 84-19.603 15.976-31.671 24.133-59.5 34-18.343-19.174-23.834-32.133-26.5-58.5M994 865c-21.964-.677-58.229-9.917-87-42 1.971-26.532.99-38.637-5.5-58 36.127 17.408 58.863 19.52 104.5 9.5 4.43 35.697 1.63 55.49-12 90.5m-7-146c-40.358 9.397-62.666 11.319-101 0l-24.5-69c42.933 14.406 68.336 14.336 115.5 3zM859.5 599c31.148 21.486 81 23 116.5 23l17-45.5c-41.5-2.5-86.5-14-113-44.5-15.873 25.913-13.503 38.689-20.5 67" fill="#797979"/>
  <path d="M322 581.5c-18.366-4.685-35.008-10.429-50-17.109M596 600c54.589-6.912 100.025-19.753 135.5-38.949m-459.5 3.34C146.183 508.329 136.666 386.372 201 272 180 23.5 239-28 382 124c65.5-29 175-23.5 241 3C795.5-2.5 844 24.5 795.5 284c52.047 138.194 26.274 228.201-64 277.051m-459.5 3.34C252.187 619.165 244.725 671.577 247.776 725m72.724 276.5c15.5 4.5 40 3 49 0m-49 0c-9.334-15.089-10.166-31.253-3-45m3 45c-10.311-4.211-19.536-10.098-26.489-17.5m75.489 17.5c-12-11.5-13.316-25.734-9-42.5m9 42.5c19.324-9.347 30.794-17.287 37.994-27M420.5 932c-9.5-59.5-16.29-97.037-37-141m37 141c7.704-5.199 11-8.643 15.5-15.5 13.631-60.095 17.763-87.646 21.5-130.5m-37 146c-2.353 19.084-5.116 31.857-13.006 42.5M247.776 725c3.418 59.823 20.019 120.911 47.224 188-20.759 30.101-16.607 54.373-.989 71m-46.235-259C196 769 194.5 867 241.5 917c-57 37.5-18.5 72.5 6 71m0 0c23 3 30.473-.46 46.511-4m-46.511 4c-4.762-11.716-5.722-19.784-4-31.5m163.994 18c6.676 15.463 14.402 21.967 36.506 29m0 0c17.916 7.4 28.605 7.35 48 5m-48-5c-6-21.5-4.382-32.59 2-41m46 46c-7-21-4-28.5-1-39m1 39c18.308 1.23 32.603-7.04 44.5-21.411m147-253.589c-42.305 9.23-66.121 52.997-84.901 103m0 0C593.5 867.5 602 897.5 618 925m-19.401-88.5c-20.788 55.347-35.407 118.336-62.099 150.589M618 925s23.84-2.418 26-1m-26 1c-39.291 9.264-49.398 40.977-41.404 61.5m28.904 18c12.289 7.07 21.033 7.03 38.5 2m-38.5-2c-6.423-24.955-4.654-31.695 2-39m-2 39c-14.084 1.63-24.385-6.4-28.904-18m67.404 20c-5.858-17.701-4.986-25.095-.5-36.5m.5 36.5c58.119 7.96 133.617-3.2 178-42.986m-90.5-402.463C808.729 654.44 867.323 745.604 860.043 873.5M536.5 987.089l40.096-.589m283.447-113a399 399 0 0 1-1.543 19c-3.142 29.907-16.736 53.298-36.5 71.014m38.043-90.014c106.457-55.5 0-169-1.543-244.5-2.426-118.694 69-184.5 130-149s-7.77 105.736-12 143.5c-7 62.5 27.33 119.387 30.5 170.5 7 113-119.5 197.5-185 169.514" stroke="#000" stroke-width="14" stroke-linecap="round"/>
  <path d="M438 424.942c-1.755 9.743-1.948 16.407-1.5 29.5m0 0c19 31.5 59.5 20 66-1.5m-66 1.5c-22 27-56.5 13-56.5-7.5" stroke="#000" stroke-width="12" stroke-linecap="round"/>
  <path d="M471 405.942c-3.691-11.536-52.329-12-57-6-8.881 11.408 13.138 33.237 24 33.5 7.653.186 37-15 33-27.5" fill="#000"/>
  <path d="M769 252c-18.186-33.677-64.008-72.013-92.5-86 7-20.5 76.66-79.314 92.5-68 18.9 13.5 12.138 127.419 0 154m-541-23.5c18.186-33.677 79.008-68.513 107.5-82.5-7-20.5-71.66-81.314-87.5-70-22.4 16-32.138 125.919-20 152.5" fill="#ffa1a9"/>
  <circle cx="554.8" cy="336.8" r="32.8" fill="#353535"/>
  <circle cx="340.8" cy="336.8" r="32.8" fill="#353535"/>
</svg>

<svg width="1080" height="1080" viewBox="0 0 1080 1080" fill="none" xmlns="http://www.w3.org/2000/svg">
<path d="M201 272C180 23.5 239 -27.9999 382 124C447.5 95 557 100.5 623 127C795.5 -2.5 844 24.5 795.5 284C847.547 422.194 821.774 512.201 731.5 561.051C808.729 654.44 867.323 745.604 860.043 873.5C966.5 818 860.043 704.5 858.5 629C856.074 510.306 927.5 444.5 988.5 480C1049.5 515.5 980.73 585.736 976.5 623.5C969.5 686 1003.83 742.887 1007 794C1014 907 887.5 991.5 822 963.514C777.617 1003.3 702.12 1014.46 644 1006.5C626.533 1011.53 617.789 1011.57 605.5 1004.5C591.416 1006.12 581.115 998.1 576.596 986.5L536.5 987.089C524.603 1001.46 510.308 1009.73 492 1008.5C472.605 1010.85 461.916 1010.9 444 1003.5C421.896 996.467 414.17 989.963 407.494 974.5C400.294 984.213 388.824 992.153 369.5 1001.5C360.5 1004.5 336 1006 320.5 1001.5C310.189 997.289 300.964 991.402 294.011 984C277.973 987.54 270.5 991 247.5 988C223 989.5 184.5 954.5 241.5 917C194.5 867 196 769 247.776 725C244.725 671.577 252.187 619.165 272 564.391C146.183 508.329 136.666 386.372 201 272Z" fill="white"/>
<path d="M501 384C443.196 271.02 488.372 198.624 525.5 104C556.589 105.279 577.302 109.252 623 125C815.682 -20.1528 834.867 47.0503 798.5 285C812.5 311 829.5 373.5 820.5 428C767.98 437.517 748.209 436.009 699.5 435C601.014 488.07 534 448.5 501 384Z" fill="#797979"/>
<path d="M385 239.5C415 186.5 419.336 169.187 385 123C240.509 -7.50658 189.927 -0.715363 199.5 273.5C198.233 282.507 169.103 338.752 171 346C177.731 371.714 231.163 337.692 245 327C300 284.5 342.048 315.382 385 239.5Z" fill="#797979"/>
<path d="M497.998 828.5C501.5 821.501 554.499 837.001 604.998 824L591.499 863.501C534 866.001 485.432 853.616 497.998 828.5Z" fill="#797979"/>
<path d="M347 818.5C345.5 801 295.5 816 260 807L270.5 842.5C322 848.5 348.081 831.113 347 818.5Z" fill="#797979"/>
<path d="M681.602 679C670.811 658.864 716.603 650 757.102 592L786.602 636L805.102 663.5L830.102 713.5L847.602 752.5L861.102 818C788.102 844.5 733.083 832.5 738.602 806C742.816 785.766 791.602 795 847.602 752.5L830.102 713.5C805.602 739 744.458 756.069 734.102 725C729.102 710 780.102 703.5 805.102 663.5L786.602 636C759.602 688 690.176 695 681.602 679Z" fill="#797979"/>
<path d="M857.5 906L863.5 870L896 846.5C908.842 882.556 915.635 905.148 943.5 930.5C923.897 946.476 911.829 954.633 884 964.5C865.657 945.326 860.166 932.367 857.5 906Z" fill="#797979"/>
<path d="M994 865C972.036 864.323 935.771 855.083 907 823C908.971 796.468 907.99 784.363 901.5 765C937.627 782.408 960.363 784.52 1006 774.5C1010.43 810.197 1007.63 829.99 994 865Z" fill="#797979"/>
<path d="M987 719C946.642 728.397 924.334 730.319 886 719L861.5 650C904.433 664.406 929.836 664.336 977 653L987 719Z" fill="#797979"/>
<path d="M859.5 599C890.648 620.486 940.5 622 976 622L993 576.5C951.5 574 906.5 562.5 880 532C864.127 557.913 866.497 570.689 859.5 599Z" fill="#797979"/>
<path d="M322 581.5C303.634 576.815 286.992 571.071 272 564.391M596 600C650.589 593.088 696.025 580.247 731.5 561.051M272 564.391C146.183 508.329 136.666 386.372 201 272C180 23.5 239 -27.9999 382 124C447.5 95 557 100.5 623 127C795.5 -2.5 844 24.5 795.5 284C847.547 422.194 821.774 512.201 731.5 561.051M272 564.391C252.187 619.165 244.725 671.577 247.776 725M320.5 1001.5C336 1006 360.5 1004.5 369.5 1001.5M320.5 1001.5C311.166 986.411 310.334 970.247 317.5 956.5M320.5 1001.5C310.189 997.289 300.964 991.402 294.011 984M369.5 1001.5C357.5 990 356.184 975.766 360.5 959M369.5 1001.5C388.824 992.153 400.294 984.213 407.494 974.5M420.5 932C411 872.5 404.21 834.963 383.5 791M420.5 932C428.204 926.801 431.5 923.357 436 916.5C449.631 856.405 453.763 828.854 457.5 786M420.5 932C418.147 951.084 415.384 963.857 407.494 974.5M247.776 725C251.194 784.823 267.795 845.911 295 913C274.241 943.101 278.393 967.373 294.011 984M247.776 725C196 769 194.5 867 241.5 917C184.5 954.5 223 989.5 247.5 988M247.5 988C270.5 991 277.973 987.54 294.011 984M247.5 988C242.738 976.284 241.778 968.216 243.5 956.5M407.494 974.5C414.17 989.963 421.896 996.467 444 1003.5M444 1003.5C461.916 1010.9 472.605 1010.85 492 1008.5M444 1003.5C438 982 439.618 970.91 446 962.5M492 1008.5C485 987.5 488 980 491 969.5M492 1008.5C510.308 1009.73 524.603 1001.46 536.5 987.089M683.5 733.5C641.195 742.73 617.379 786.497 598.599 836.5M598.599 836.5C593.5 867.5 602 897.5 618 925M598.599 836.5C577.811 891.847 563.192 954.836 536.5 987.089M618 925C618 925 641.84 922.582 644 924M618 925C578.709 934.264 568.602 965.977 576.596 986.5M605.5 1004.5C617.789 1011.57 626.533 1011.53 644 1006.5M605.5 1004.5C599.077 979.545 600.846 972.805 607.5 965.5M605.5 1004.5C591.416 1006.13 581.115 998.1 576.596 986.5M644 1006.5C638.142 988.799 639.014 981.405 643.5 970M644 1006.5C702.119 1014.46 777.617 1003.3 822 963.514M731.5 561.051C808.729 654.44 867.323 745.604 860.043 873.5M536.5 987.089L576.596 986.5M860.043 873.5C859.687 879.744 859.175 886.076 858.5 892.5C855.358 922.407 841.764 945.798 822 963.514M860.043 873.5C966.5 818 860.043 704.5 858.5 629C856.074 510.306 927.5 444.5 988.5 480C1049.5 515.5 980.73 585.736 976.5 623.5C969.5 686 1003.83 742.887 1007 794C1014 907 887.5 991.5 822 963.514" stroke="black" stroke-width="14" stroke-linecap="round"/>
<path d="M438 424.942C436.245 434.685 436.052 441.349 436.5 454.442M436.5 454.442C455.5 485.942 496 474.442 502.5 452.942M436.5 454.442C414.5 481.442 380 467.442 380 446.942" stroke="black" stroke-width="12" stroke-linecap="round"/>
<path d="M471 405.942C467.309 394.406 418.671 393.942 414 399.942C405.119 411.35 427.138 433.179 438 433.442C445.653 433.628 475 418.442 471 405.942Z" fill="black"/>
<path d="M769 252C750.814 218.323 704.992 179.987 676.5 166C683.5 145.5 753.16 86.6856 769 98C787.9 111.5 781.138 225.419 769 252Z" fill="#FFA1A9"/>
<path d="M228 228.5C246.186 194.823 307.008 159.987 335.5 146C328.5 125.5 263.84 64.6855 248 75.9999C225.6 92 215.862 201.919 228 228.5Z" fill="#FFA1A9"/>
<circle cx="554.8" cy="336.8" r="32.8002" fill="#353535"/>
<circle cx="340.8" cy="336.8" r="32.8002" fill="#353535"/>
</svg>
